X: 41
T:The Day We Went To Kells
R:Reel
C:Ed Reavy
M:2/2
L:1/8
Z:Joe Reavy
N:Ed was quite young when it happened,
N:but he remembers vividly the festivity of
N:the occasion-music of course, and young
N:and old together to celebrate the trip
N:to some far off place they had only dreamed of going.
K:G
GA||:BG (3GFG AGFD|BGBG cAFA|BG (3GFG A2 Bc|dfed cAFA|
BG (3GFG AGFD|BGBG cAFA|BG (3GFG A2 Bc|dfed dAFA||
(3Bcd gf afgB|(3ABc eg fdcA|(3Bcd gf afge|fdcA BG G2|
(3Bcd gf afgB|(3ABc eg f2 fg (3agf ge fdeg|fdcA BG G2:||
